X: 1875
T: Toprakta Yatacak...
C: Dede Efendi
O: Turkey
F: http://compmusic.upf.edu/node/140
N: muhayyer--ilahi--duyek--toprakta_yatacak--dede_efendi
N: makam= muhayyer
N: form= ilahi
N: usul= duyek = 8/4
M: 8/4
L: 1/16
K: C _2/4B ^3/4f  
Q: 1/4=120
%%MIDI tuningsystem comma53
z2 g4 a2 a4 a4  | z2 c'2 _1/4b2 a2 g2 ^f2 e2 d2  | \
w:   |   | 
z2 a2 g2 ^f2 ga g2 a4  | 
w:   | 
a2 c'4 _1/4ba a6 z2  | z2 g4 a2 a4 a2 d'2  | \
w:   |   | 
a2 a2 g2 =f2 e2 dc e2 dc  | 
w:   | 
c2 c4 _1/4B2 B2 c2 BA A4 A2 c4 BA A4 c'4 z2 c'6 c'2 _7/8d'2 c'2  | \
w:   | 
_1/4b2 z2 a4 b2 c'2 _7/8d'2 c'2  | 
w:   | 
_1/4b2 z2 _7/8d'4 d'c' c'3b b3a a2 c'4 ba a4 z4 z2 g4 a2 a4 a2  | \
w:   | 
d'2 a2 a2 g2 =f2 e2 dc e2  | 
w:   | 
dc c2 c4 _1/4B2 B2 c2 BA  | A4 A2 c4 _1/4BA A4  | \
w:   |   | 
z4 z2 g4 a2 a4  | a2 d'2 a2 a2 g2 =f2 e2 dc  | 
w:   |   | 
e2 dc c2 c4 _1/4B2 B2 c2  | _1/4BA A4 A2 c4 BA A4 z4 z2 g4 a2 a4 a4 z2 c'2 _1/4b2 a2 g2  | 
w:   |   | 
^f2 e2 d2 z2 a2 g2 f2 ga  | g2 a4 a2 c'4 _1/4ba a6 z2 z2 g4 a2 a4 a2 d'2 a2 a2 g2 =f2 e2  | 
w:   |   | 
dc e2 dc c2 c4 _1/4B2 B2  | c2 _1/4BA A4 A2 c4 BA  | \
w:   |   | 
A4 c'4 z2 c'6  | 
w:   | 
c'2 _7/8d'2 c'2 _1/4b2 z2 a4 b2  | \
w:   | 
c'2 _7/8d'2 c'2 _1/4b2 z2 d'4 d'c'  | \
w:   | 
c'3_1/4b b3a a2 c'4 ba  | 
w:   | 
a4 z4 z2 g4 a2  | a4 a2 d'2 a2 a2 g2 =f2  | \
w:   |   | 
e2 dc e2 dc c2 c4 _1/4B2  | 
w:   | 
_1/4B2 c2 BA A4 A2 c4  | _1/4BA A4 z4 z2 g4  | \
w:   |   | 
a2 a4 a2 d'2 a2 a2 g2  | =f2 e2 dc e2 dc c2 c4  | 
w:   |   | 
_1/4B2 B2 c2 BA A4 A2 c4 BA A4 z4 |
w:   | 


